actions/24/distribute-horizontal-page.svg

<!DOCTYPE svg>
<svg xmlns="http://www.w3.org/2000/svg" viewBox="0 0 24 24" version="1.1" width="24" height="24">
  <defs>
    <style type="text/css" id="current-color-scheme">
            .ColorScheme-Text {
                color:#eff0f1;
            }
        </style>
  </defs>
  <g transform="translate(1,1)">
    <path class="ColorScheme-Text" style="fill:currentColor; fill-opacity:1; stroke:none" d="M 3 19 C 3 13.6667 3 8.33333 3 3 C 7 3 11 3 15 3 C 16.3338 3.99938 17.6666 5.00013 19 6 C 19 10.3333 19 14.6667 19 19 C 13.6667 19 8.33333 19 3 19 Z M 4 18 C 8.66667 18 13.3333 18 18 18 C 18 14 18 10 18 6 C 17 6 16 6 15 6 C 15 5.33333 15 4.66667 15 4 C 11.3333 4 7.66667 4 4 4 C 4 8.66667 4 13.3333 4 18 Z M 5 15 C 5 12.3333 5 9.66667 5 7 C 6.66667 7 8.33333 7 10 7 C 10 9.66667 10 12.3333 10 15 C 8.33333 15 6.66667 15 5 15 Z M 12 15 C 12 12.3333 12 9.66667 12 7 C 13.6667 7 15.3333 7 17 7 C 17 9.66667 17 12.3333 17 15 C 15.3333 15 13.6667 15 12 15 Z M 6 14 C 7 14 8 14 9 14 C 9 12 9 10 9 8 C 8 8 7 8 6 8 C 6 10 6 12 6 14 Z M 13 14 C 14 14 15 14 16 14 C 16 12 16 10 16 8 C 15 8 14 8 13 8 C 13 10 13 12 13 14 Z"/>
  </g>
</svg>

<!DOCTYPE svg>
<svg xmlns="http://www.w3.org/2000/svg" viewBox="0 0 24 24" version="1.1" width="24" height="24">
  <defs>
    <style type="text/css" id="current-color-scheme">.ColorScheme-Text {color:#fcfcfc;}</style>
  </defs>
  <g transform="translate(1,1)">
    <path class="ColorScheme-Text" style="fill:currentColor; fill-opacity:1; stroke:none" d="M 3,16 C 3,16 3,9 3,6 3,3 6,3 6,3 h 9 c 1.3338,0.99938 2.6666,2.00013 4,3 v 10 c 0,0 0,3 -3,3 -3,0 -7,0 -10,0 -3,0 -3,-3 -3,-3 z m 1,0 c 0,0 0,2 2,2 2,0 8,0 10,0 2,0 2,-2 2,-2 V 6 H 15 V 4 H 6 C 6,4 4,4 4,6 4,8 4,16 4,16 Z M 5,15 V 7 h 5 v 8 z m 7,0 V 7 h 5 v 8 z M 6,14 H 9 V 8 H 6 Z m 7,0 h 3 V 8 h -3 z"/>
  </g>
</svg>
